!!!COM: Music21
!!!OTL: Jota da Mahía
!!!OMV: pezas_jotas_jota-da-mahia_jota-da-mahia-partitura.musicxml
**kern
*I"Bagpipes
*I'Bag
*clefG^2
*k[]
*M3/4
=1
!LO:TX:a:t=Prestissimo
*MM200
!LO:TX:a:t=[quarter]=200
4r
8ggL
8ffJ
8eeL
8ffJ
=||
8ggL
8ffJ
8eeL
8ffJ
8ggL
8eeJ
=
4cc
8ggL
8ffJ
8eeL
8ffJ
=
8ggL
8ffJ
8eeL
8ffJ
8eeL
8ccJ
=
4dd
8ffL
8eeJ
8ddL
8eeJ
=
8ffL
8eeJ
8ddL
8eeJ
8ffL
8ddJ
=
4b
8ffL
8eeJ
8ddL
8eeJ
!!linebreak:original
=
8ffL
8eeJ
8ddL
8ccJ
8bL
8ddJ
=
4cc
8ggL
8ffJ
[4ee
=||
8eeL]
8ffJ
8ggL
8ffJ
8ggL
8eeJ
=
4cc
8ggL
8ffJ
[4ee
=
8eeL]
8ffJ
8ggL
8ffJ
8eeL
8ccJ
=
4dd
8ffL
8eeJ
[4dd
=
8ddL]
8eeJ
8ffL
8ggJ
8ffL
8ddJ
!!linebreak:original
=
4b
8ffL
8eeJ
8ddL
8eeJ
=
8ffL
8eeJ
8ddL
8ccJ
8bL
8ddJ
=
4cc
8eeL
8ddJ
8ccL
8eeJ
=||
8ggL
8eeJ
8cccL
8ggJ
8eeL
8ggJ
=
8cccL
8ggJ
8ccL
8eeJ
8ccL
8eeJ
=
8ggL
8eeJ
8cccL
8ggJ
8eeL
8ggJ
!!linebreak:original
=
8ffL
8ddJ
8bL
8ccJ
8ddL
8eeJ
=
8ffL
8ddJ
8bbL
8ffJ
8ddL
8ffJ
=
8bbL
8ffJ
8ddL
8ffJ
8bbL
8ffJ
=
8ddL
8ffJ
8bbL
8ggJ
8ffL
8ddJ
=
4cc
8ccL
8eeJ
8ccL
8eeJ
=
8ggL
8eeJ
8cccL
8ggJ
8eeL
8ggJ
!!linebreak:original
=
8cccL
8ggJ
8ccL
8eeJ
8ccL
8eeJ
=
8ggL
8eeJ
8cccL
8ggJ
8eeL
8ggJ
=
8ffL
8ddJ
8bL
8ddJ
8ffL
8ggJ
=
8bbL
8aaJ
8cccL
8bbJ
8aaL
8ggJ
=
8bbL
8aaJ
8ggL
8ffJ
8aaL
8ggJ
=
8ffL
8eeJ
8ggL
8ffJ
8eeL
8ddJ
=||
[2.cc
!!linebreak:original
=
4cc]
8ffL
8eeJ
4dd
=||
4ee
4ff
4aa
=
4.gg
8ff
[4ee
=
2.ee_
=
4ee]
8ggL
8ffJ
4ee
=
4ff
4gg
4bb
=
4.aa
8gg
[4ff
=
2.ff_
=
4ff]
8ffL
8eeJ
4dd
=
4ee
4ff
4aa
!!linebreak:original
=
4.gg
8ff
[4ee
=
2.ee_
=
4ee]
8ggL
8ffJ
4ee
=
4ff
4gg
4bb
=
4.aa
8gg
[4ff
=
4ff]
4aa
4ccc
=
4.bb
8aa
[4gg
=
4gg]
4ff
4aa
=
4.gg
8ff
[4ee
=
2.ee_
!!linebreak:original
=
4ee]
8ggL
8ffJ
4ee
=
4ff
4gg
4bb
=
4.aa
8gg
[4ff
=
4ff]
4aa
4ccc
=
4.bb
8aa
[4gg
=
8ggL]
8aaJ
8bbL
8aaJ
8ggL
8ffJ
=
[2.ee
=
4ee]
8ggL
8ffJ
8eeL
8ffJ
=||
4cc
8eeL
8ccJ
8ggL
8ccJ
!!linebreak:original
=
8ccc
8r
2r
==
*-
